usr/share/icons/biglinux-icons-material/24/actions/dashboard-show.svg

<svg xmlns="http://www.w3.org/2000/svg" viewBox="0 0 24 24">
  <defs id="defs3051">
    <style type="text/css" id="current-color-scheme">
      .ColorScheme-Text {
        color:#dedede;
      }
      </style>
  </defs>
 <path style="fill:currentColor;fill-opacity:1;stroke:none" 
     d="M 4 4 L 4 18 L 20 18 L 20 4 L 4 4 z M 5 5 L 19 5 L 19 17 L 5 17 L 5 5 z M 6 6 L 6 10 L 8 10 L 10 8 L 10 6 L 6 6 z M 14.5 7 C 12.561005 7 11 8.561005 11 10.5 C 11 12.438995 12.561005 14 14.5 14 C 16.438995 14 18 12.438995 18 10.5 C 18 8.561005 16.438995 7 14.5 7 z M 14.5 8 C 15.884997 8 17 9.115003 17 10.5 C 17 11.884997 15.884997 13 14.5 13 C 13.115003 13 12 11.884997 12 10.5 C 12 9.115003 13.115003 8 14.5 8 z M 10 9 L 9 10 L 10 10 L 10 9 z M 14 9 L 14 11 L 15 11 L 16 11 L 16 10 L 15 10 L 15 9 L 14 9 z M 6 13 L 6 15 L 8 15 L 9 16 L 9 15 L 9.2363281 15 L 9.2363281 13 L 6 13 z M 4 19 L 4 20 L 20 20 L 20 19 L 4 19 z "
     class="ColorScheme-Text"
     />
</svg>

<svg xmlns="http://www.w3.org/2000/svg" viewBox="0 0 24 24"><path d="M4 4v14h16V4H4zm1 1h14v12H5V5zm1 1v4h2l2-2V6H6zm8.5 1a3.492 3.492 0 0 0-3.5 3.5c0 1.939 1.561 3.5 3.5 3.5s3.5-1.561 3.5-3.5S16.439 7 14.5 7zm0 1c1.385 0 2.5 1.115 2.5 2.5S15.885 13 14.5 13a2.495 2.495 0 0 1-2.5-2.5C12 9.115 13.115 8 14.5 8zM10 9l-1 1h1V9zm4 0v2h2v-1h-1V9h-1zm-8 4v2h2l1 1v-1h.236v-2H6zm-2 6v1h16v-1H4z" style="fill:currentColor;fill-opacity:1;stroke:none;color:#dedede"/></svg>
